assets/icons/qvision/do_not_disturb_off.svg

<svg xmlns="http://www.w3.org/2000/svg" height="24" viewBox="0 0 24 24" width="24"><path d="M0 0h24v24H0V0z" fill="none"/><path d="M17 11v2h-1.46l4.68 4.68C21.34 16.07 22 14.11 22 12c0-5.52-4.48-10-10-10-2.11 0-4.07.66-5.68 1.78L13.54 11H17zM2.27 2.27L1 3.54l2.78 2.78C2.66 7.93 2 9.89 2 12c0 5.52 4.48 10 10 10 2.11 0 4.07-.66 5.68-1.78L20.46 23l1.27-1.27L11 11 2.27 2.27zM7 13v-2h1.46l2 2H7z"/></svg>

<svg width="24" height="24" viewBox="0 0 24 24" fill="none" xmlns="http://www.w3.org/2000/svg">
<g clip-path="url(#clip0_147_5937)">
<path d="M17 11V13H15.54L20.22 17.68C21.34 16.07 22 14.11 22 12C22 6.48 17.52 2 12 2C9.89 2 7.93 2.66 6.32 3.78L13.54 11H17ZM2.27 2.27L1 3.54L3.78 6.32C2.66 7.93 2 9.89 2 12C2 17.52 6.48 22 12 22C14.11 22 16.07 21.34 17.68 20.22L20.46 23L21.73 21.73L11 11L2.27 2.27ZM7 13V11H8.46L10.46 13H7Z" fill="#323232"/>
</g>
<defs>
<clipPath id="clip0_147_5937">
<rect width="24" height="24" fill="white"/>
</clipPath>
</defs>
</svg>
